icones/logo-noir.svg

<svg width="150" height="28" viewBox="0 0 150 28" fill="none" xmlns="http://www.w3.org/2000/svg">
<path fill-rule="evenodd" clip-rule="evenodd" d="M28.0159 7.51596C28.0159 10.2802 26.5388 12.6944 24.3401 14C26.5388 15.3056 28.0159 17.7198 28.0159 20.484C28.0159 24.6349 24.6872 28 20.5811 28C17.7303 28 15.2556 26.3772 14.008 23.9965C12.7603 26.3772 10.2856 28 7.43477 28C3.32871 28 0 24.6349 0 20.484C0 17.7198 1.47714 15.3056 3.67585 14C1.47714 12.6944 0 10.2802 0 7.51596C0 3.36506 3.32871 0 7.43477 0C10.2856 0 12.7603 1.62277 14.008 4.00348C15.2556 1.62277 17.7303 0 20.5811 0C24.6872 0 28.0159 3.36506 28.0159 7.51596ZM54.9272 21.4341C53.8579 22.2954 52.3337 22.734 50.3548 22.75H43.5799V5.33203H49.6845C51.7991 5.33203 53.403 5.73678 54.4963 6.54626C55.5895 7.35575 56.1361 8.54207 56.1361 10.1052C56.1361 10.9586 55.9167 11.7102 55.4778 12.3602C55.0389 13.0102 54.4284 13.4867 53.6464 13.7898C54.5402 14.0131 55.2444 14.4637 55.7591 15.1416C56.2738 15.8195 56.5311 16.6489 56.5311 17.6299C56.5311 19.3047 55.9965 20.5728 54.9272 21.4341ZM47.1708 12.6294H49.8281C51.6395 12.5975 52.5452 11.8757 52.5452 10.4641C52.5452 9.67456 52.3158 9.10632 51.857 8.7594C51.3981 8.41248 50.674 8.23901 49.6845 8.23901H47.1708V12.6294ZM50.247 19.8669H47.1708V15.1655H50.4625C52.1143 15.1895 52.9402 15.9989 52.9402 17.594C52.9402 18.3038 52.7028 18.8601 52.228 19.2628C51.7532 19.6656 51.0929 19.8669 50.247 19.8669ZM68.9348 22.75V25.4536H58.0304V22.75H68.9348ZM75.5691 22.9893C77.173 22.9893 78.4817 22.6244 79.4951 21.8947C80.5086 21.1649 81.0153 20.2099 81.0153 19.0295C81.0153 17.3787 80.1016 16.2183 78.2742 15.5483C77.6837 15.333 76.9576 15.1396 76.0957 14.9681C75.2339 14.7967 74.6215 14.5933 74.2584 14.358C73.8953 14.1228 73.7138 13.8137 73.7138 13.4309C73.7138 13.0242 73.8734 12.6892 74.1926 12.426C74.5117 12.1628 74.9626 12.0312 75.5451 12.0312C76.2234 12.0312 76.7222 12.1927 77.0413 12.5157C77.3605 12.8387 77.5201 13.2475 77.5201 13.7419H80.9794C80.9794 12.5058 80.4866 11.5009 79.5011 10.7273C78.5156 9.9537 77.2009 9.56689 75.5571 9.56689C74.017 9.56689 72.7702 9.9517 71.8166 10.7213C70.863 11.4909 70.3862 12.45 70.3862 13.5984C70.3862 15.5683 71.9263 16.8762 75.0065 17.5222C75.9322 17.7136 76.6045 17.931 77.0234 18.1742C77.4423 18.4174 77.6518 18.7504 77.6518 19.1731C77.6518 19.5798 77.4822 19.9088 77.1431 20.16C76.8039 20.4113 76.3032 20.5369 75.6409 20.5369C74.9307 20.5369 74.3641 20.3734 73.9412 20.0464C73.5183 19.7194 73.2908 19.2489 73.2589 18.6348H69.9792C69.9792 19.4163 70.2186 20.1441 70.6974 20.818C71.1762 21.4919 71.8365 22.0223 72.6784 22.4091C73.5203 22.7959 74.4838 22.9893 75.5691 22.9893ZM89.038 25.4417C88.264 27.1324 86.9872 27.9778 85.2077 27.9778C84.705 27.9778 84.1943 27.902 83.6756 27.7505V25.1306L84.2023 25.1426C84.8566 25.1426 85.3454 25.0429 85.6686 24.8435C85.9918 24.6441 86.2451 24.3132 86.4287 23.8506L86.8356 22.7859L82.2991 9.80615H86.0217L88.4276 17.8572L90.8215 9.80615H94.5321L89.3253 24.7598L89.038 25.4417ZM101.178 22.9893C102.782 22.9893 104.091 22.6244 105.104 21.8947C106.118 21.1649 106.625 20.2099 106.625 19.0295C106.625 17.3787 105.711 16.2183 103.884 15.5483C103.293 15.333 102.567 15.1396 101.705 14.9681C100.843 14.7967 100.231 14.5933 99.8677 14.358C99.5046 14.1228 99.3231 13.8137 99.3231 13.4309C99.3231 13.0242 99.4827 12.6892 99.8019 12.426C100.121 12.1628 100.572 12.0312 101.154 12.0312C101.833 12.0312 102.331 12.1927 102.651 12.5157C102.97 12.8387 103.129 13.2475 103.129 13.7419H106.589C106.589 12.5058 106.096 11.5009 105.11 10.7273C104.125 9.9537 102.81 9.56689 101.166 9.56689C99.6263 9.56689 98.3795 9.9517 97.4259 10.7213C96.4723 11.4909 95.9955 12.45 95.9955 13.5984C95.9955 15.5683 97.5356 16.8762 100.616 17.5222C101.541 17.7136 102.214 17.931 102.633 18.1742C103.052 18.4174 103.261 18.7504 103.261 19.1731C103.261 19.5798 103.092 19.9088 102.752 20.16C102.413 20.4113 101.913 20.5369 101.25 20.5369C100.54 20.5369 99.9734 20.3734 99.5505 20.0464C99.1276 19.7194 98.9002 19.2489 98.8682 18.6348H95.5885C95.5885 19.4163 95.8279 20.1441 96.3067 20.818C96.7855 21.4919 97.4458 22.0223 98.2877 22.4091C99.1296 22.7959 100.093 22.9893 101.178 22.9893ZM115.689 22.6782C115.01 22.8856 114.312 22.9893 113.594 22.9893C111.168 22.9893 109.931 21.7651 109.883 19.3167V12.3423H107.992V9.80615H109.883V6.62402H113.343V9.80615H115.557V12.3423H113.343V18.8022C113.343 19.2808 113.434 19.6237 113.618 19.8311C113.802 20.0384 114.153 20.1421 114.671 20.1421C115.054 20.1421 115.393 20.1142 115.689 20.0583V22.6782ZM123.795 22.9893C124.873 22.9893 125.854 22.7839 126.74 22.3732C127.626 21.9624 128.328 21.3902 128.846 20.6565L127.147 18.7544C126.397 19.7194 125.355 20.2019 124.023 20.2019C123.161 20.2019 122.449 19.9467 121.886 19.4363C121.324 18.9259 120.986 18.248 120.875 17.4026H129.122V15.991C129.122 13.9413 128.613 12.3582 127.596 11.2417C126.578 10.1252 125.184 9.56689 123.412 9.56689C122.231 9.56689 121.18 9.84403 120.258 10.3983C119.337 10.9526 118.624 11.7421 118.122 12.767C117.619 13.7918 117.368 14.9542 117.368 16.2542V16.5891C117.368 18.5271 117.964 20.0783 119.157 21.2427C120.35 22.4071 121.896 22.9893 123.795 22.9893ZM120.911 15.0459H125.722V14.7708C125.706 14.0051 125.499 13.413 125.1 12.9943C124.701 12.5756 124.134 12.3662 123.4 12.3662C122.714 12.3662 122.157 12.5975 121.731 13.0601C121.304 13.5226 121.03 14.1846 120.911 15.0459ZM134.894 13.5984C135.333 12.7849 136.043 12.3782 137.025 12.3782C137.735 12.3782 138.238 12.5457 138.533 12.8806C138.828 13.2156 138.976 13.7579 138.976 14.5076V22.75H142.435L142.423 13.8616C142.822 12.8726 143.54 12.3782 144.578 12.3782C145.304 12.3782 145.811 12.5476 146.098 12.8866C146.385 13.2255 146.529 13.7619 146.529 14.4956V22.75H150V14.4836C150 12.8407 149.657 11.6106 148.971 10.7931C148.284 9.97563 147.239 9.56689 145.835 9.56689C144.151 9.56689 142.854 10.2249 141.944 11.5408C141.322 10.2249 140.177 9.56689 138.509 9.56689C136.945 9.56689 135.704 10.1292 134.787 11.2537L134.679 9.80615H131.435V22.75H134.894V13.5984Z" fill="black"/>
</svg>

<svg width="150" height="28" fill="none" xmlns="http://www.w3.org/2000/svg"><path fill-rule="evenodd" clip-rule="evenodd" d="M28.016 7.516A7.527 7.527 0 0 1 24.34 14a7.527 7.527 0 0 1 3.676 6.484c0 4.15-3.329 7.516-7.435 7.516-2.85 0-5.325-1.623-6.573-4.003C12.76 26.377 10.286 28 7.435 28 3.329 28 0 24.635 0 20.484A7.527 7.527 0 0 1 3.676 14 7.527 7.527 0 0 1 0 7.516C0 3.366 3.329 0 7.435 0c2.85 0 5.325 1.623 6.573 4.003C15.256 1.623 17.73 0 20.581 0c4.106 0 7.435 3.365 7.435 7.516Zm26.911 13.918c-1.07.861-2.593 1.3-4.572 1.316H43.58V5.332h6.105c2.114 0 3.718.405 4.811 1.214 1.093.81 1.64 1.996 1.64 3.56 0 .853-.22 1.604-.658 2.254-.44.65-1.05 1.127-1.832 1.43.894.223 1.598.674 2.113 1.352.515.678.772 1.507.772 2.488 0 1.675-.535 2.943-1.604 3.804Zm-7.756-8.805h2.657c1.811-.031 2.717-.753 2.717-2.165 0-.79-.23-1.358-.688-1.705-.459-.347-1.183-.52-2.172-.52H47.17v4.39Zm3.076 7.238h-3.076v-4.702h3.291c1.652.025 2.478.834 2.478 2.429 0 .71-.237 1.266-.712 1.669s-1.135.604-1.981.604Zm18.688 2.883v2.704H58.03V22.75h10.905Zm6.634.24c1.604 0 2.913-.366 3.926-1.095 1.014-.73 1.52-1.685 1.52-2.866 0-1.65-.913-2.81-2.74-3.48-.591-.216-1.317-.41-2.18-.58-.861-.172-1.474-.376-1.837-.611s-.544-.544-.544-.927c0-.407.16-.742.479-1.005.319-.263.77-.395 1.352-.395.678 0 1.177.162 1.496.485.32.323.48.732.48 1.226h3.458c0-1.236-.492-2.241-1.478-3.015-.985-.773-2.3-1.16-3.944-1.16-1.54 0-2.787.385-3.74 1.154-.954.77-1.43 1.729-1.43 2.877 0 1.97 1.54 3.278 4.62 3.924.925.192 1.597.409 2.016.652.42.243.629.576.629 1 0 .406-.17.735-.509.986-.34.251-.84.377-1.502.377-.71 0-1.277-.164-1.7-.49-.423-.328-.65-.798-.682-1.412h-3.28c0 .781.24 1.51.718 2.183.48.674 1.14 1.204 1.981 1.591.842.387 1.806.58 2.891.58Zm13.469 2.452c-.774 1.69-2.05 2.536-3.83 2.536a5.447 5.447 0 0 1-1.532-.228v-2.62l.526.013c.655 0 1.143-.1 1.467-.3.323-.199.576-.53.76-.992l.407-1.065-4.537-12.98h3.723l2.406 8.051 2.394-8.05h3.71L89.325 24.76l-.287.682Zm12.14-2.453c1.604 0 2.913-.365 3.926-1.094 1.014-.73 1.521-1.685 1.521-2.866 0-1.65-.914-2.81-2.741-3.48-.591-.216-1.317-.41-2.179-.58-.862-.172-1.474-.376-1.837-.611s-.545-.544-.545-.927c0-.407.16-.742.479-1.005.319-.263.77-.395 1.352-.395.679 0 1.177.162 1.497.485.319.323.478.732.478 1.226h3.46c0-1.236-.493-2.241-1.479-3.015-.985-.773-2.3-1.16-3.944-1.16-1.54 0-2.787.385-3.74 1.154-.954.77-1.43 1.729-1.43 2.877 0 1.97 1.54 3.278 4.62 3.924.925.192 1.598.409 2.017.652.419.243.628.576.628 1 0 .406-.169.735-.509.986-.339.251-.839.377-1.502.377-.71 0-1.277-.164-1.7-.49-.422-.328-.65-.798-.682-1.412h-3.28c0 .781.24 1.51.719 2.183.478.674 1.139 1.204 1.98 1.591.843.387 1.806.58 2.891.58Zm14.511-.31a7.13 7.13 0 0 1-2.095.31c-2.426 0-3.663-1.224-3.711-3.672v-6.975h-1.891V9.806h1.891V6.624h3.46v3.182h2.214v2.536h-2.214v6.46c0 .479.091.822.275 1.03.184.206.535.31 1.053.31.383 0 .722-.028 1.018-.084v2.62Zm8.106.31c1.078 0 2.059-.205 2.945-.616.886-.41 1.588-.983 2.106-1.716l-1.699-1.903c-.75.965-1.792 1.448-3.124 1.448-.862 0-1.574-.255-2.137-.766-.562-.51-.9-1.188-1.011-2.033h8.247V15.99c0-2.05-.509-3.633-1.526-4.75-1.018-1.116-2.412-1.674-4.184-1.674-1.181 0-2.232.277-3.154.831-.921.555-1.634 1.344-2.136 2.369-.503 1.025-.754 2.187-.754 3.487v.335c0 1.938.596 3.49 1.789 4.654 1.193 1.164 2.739 1.746 4.638 1.746Zm-2.884-7.943h4.811v-.275c-.016-.766-.223-1.358-.622-1.777-.399-.418-.966-.628-1.7-.628-.686 0-1.243.232-1.669.694-.427.463-.701 1.125-.82 1.986Zm13.983-1.448c.439-.813 1.149-1.22 2.131-1.22.71 0 1.213.168 1.508.503.295.335.443.877.443 1.627v8.242h3.459l-.012-8.888c.399-.99 1.117-1.484 2.155-1.484.726 0 1.233.17 1.52.509.287.338.431.875.431 1.609v8.254H150v-8.266c0-1.643-.343-2.873-1.029-3.69-.687-.818-1.732-1.227-3.136-1.227-1.684 0-2.981.658-3.891 1.974-.622-1.316-1.767-1.974-3.435-1.974-1.564 0-2.805.562-3.722 1.687l-.108-1.448h-3.244V22.75h3.459v-9.152Z" fill="#000"/></svg>
